X: 850
T: Rye Straw
C:Traditional
B: jims roots
M:4/4
L:1/8
Q: 1/4=100
K:A
V:1 
%N:TablEdited by Kim Davis
%Q:490
|: "A"E2 EE "D"FEDF | "A"E2 EE "D"FD2F | "A"E2EE "D"FED2 | "E"efed "A"cAz2 |
E2 EE "D"FEDF | "A"E2E=G "D"FD2F | "A"E2EE "D"FED2 | "E"efed "A"cAz2 :|
|: "A"e3e f2 e2 | "D"defa fdz2 | "A"e3f e2Bc | "D"dBA=G FD3 |
"A"e3f ece2 | "D"dcde f=gaf | "A"e2fg "D"afed | "E"cABc "A"A4 :|
"D"def=g a2af | "G"=gbag "A"fdec | "D"def=g a2af | "G"=gfed "A"=cBA2 | "A"E8 |
% abcbook-tune_id 6298c287d3673a8b30ef03ea


% abcbook-boost 0
% abcbook-tablature 
% abcbook-transpose 
% abcbook-lastupdated 1654178439925
% abcbook-soundfonts 
% abcbook-repeats 1


